static/logo.svg

<svg width="284" height="75" viewBox="0 0 284 75" fill="none" xmlns="http://www.w3.org/2000/svg">
<g clip-path="url(#clip0_1_4)">
<path d="M27.4799 24.3468V7.42102C27.5203 6.55521 27.8937 5.73823 28.5225 5.13978C29.1512 4.54133 29.987 4.20743 30.8562 4.20743C31.7254 4.20743 32.5611 4.54133 33.1899 5.13978C33.8186 5.73823 34.192 6.55521 34.2325 7.42102V37.946C34.2246 41.7846 32.9163 45.5079 30.5199 48.5119C28.1234 51.5159 24.7795 53.6243 21.0305 54.4951C17.2815 55.3659 13.3475 54.9481 9.86654 53.3093C6.38561 51.6705 3.56206 48.907 1.85394 45.467C0.145828 42.0271 -0.346635 38.1125 0.456448 34.3584C1.25953 30.6043 3.31105 27.2309 6.27817 24.7854C9.24529 22.34 12.9539 20.966 16.8025 20.8864C20.651 20.8068 24.4136 22.0262 27.4799 24.3468ZM27.4799 37.946V37.8802C27.4711 35.1315 26.3689 32.4986 24.4151 30.5595C22.4614 28.6205 19.8159 27.5339 17.0595 27.5383C14.3031 27.5426 11.661 28.6376 9.71347 30.5828C7.76592 32.528 6.67206 35.1644 6.67206 37.9131C6.67206 40.6618 7.76592 43.2982 9.71347 45.2434C11.661 47.1885 14.3031 48.2835 17.0595 48.2879C19.8159 48.2922 22.4614 47.2056 24.4151 45.2666C26.3689 43.3276 27.4711 40.6947 27.4799 37.946Z" fill="black"/>
<path d="M72.4169 38.0849C72.414 38.5275 72.3234 38.9651 72.1502 39.3726C71.9771 39.7801 71.7248 40.1494 71.4079 40.4593C71.091 40.7692 70.7158 41.0135 70.3039 41.1782C69.8919 41.3429 69.4514 41.4247 69.0076 41.4189H45.4796C46.1829 43.4606 47.5074 45.2326 49.2684 46.4881C51.0295 47.7437 53.1395 48.4201 55.3043 48.4232C58.0179 48.4641 60.6798 47.6813 62.9368 46.1786C64.5058 45.155 66.6027 46.1055 67.4386 47.7432C68.2744 49.381 67.3726 51.2088 65.8035 52.2251C62.7318 54.3466 59.0339 55.3766 55.3043 55.1496C50.7658 55.1496 46.4131 53.3517 43.2039 50.1515C39.9946 46.9512 38.1917 42.6107 38.1917 38.0849C38.1917 33.5591 39.9946 29.2186 43.2039 26.0183C46.4131 22.8181 50.7658 21.0202 55.3043 21.0202C63.5527 21.0202 72.4169 27.0009 72.4169 38.0849ZM45.4796 34.7144H65.195C63.7286 29.9547 59.4028 27.7759 55.3116 27.7759C53.1548 27.778 51.0516 28.4463 49.2911 29.6887C47.5305 30.9311 46.199 32.6868 45.4796 34.7144Z" fill="black"/>
<path d="M100.916 25.7068L90.6879 52.9051C90.4435 53.561 90.0076 54.1288 89.4366 54.5354C88.8655 54.942 88.1854 55.1687 87.4839 55.1862H87.4179C86.7192 55.1775 86.0395 54.9585 85.4678 54.558C84.8961 54.1574 84.459 53.5941 84.2139 52.9416L73.9932 25.7068C73.8135 25.2873 73.7208 24.836 73.7208 24.3799C73.7207 23.9238 73.8133 23.4724 73.9929 23.0529C74.1726 22.6334 74.4355 22.2546 74.7659 21.9392C75.0964 21.6239 75.4874 21.3785 75.9155 21.2179C76.3436 21.0573 76.7999 20.9848 77.2568 21.0049C77.7138 21.0249 78.1619 21.137 78.5743 21.3344C78.9866 21.5319 79.3545 21.8105 79.6559 22.1536C79.9573 22.4966 80.1859 22.897 80.328 23.3306L87.4912 42.3036L94.5811 23.3306C94.8971 22.4919 95.5343 21.8128 96.3524 21.4426C97.1705 21.0724 98.1026 21.0414 98.9436 21.3565C99.7846 21.6716 100.466 22.307 100.837 23.1228C101.208 23.9386 101.239 24.8681 100.923 25.7068H100.916Z" fill="black"/>
<path d="M102.28 38.0849C102.285 34.7096 103.294 31.4118 105.179 28.6081C107.064 25.8045 109.74 23.6209 112.868 22.3332C115.997 21.0456 119.438 20.7117 122.757 21.3737C126.076 22.0357 129.124 23.664 131.515 26.0527C133.907 28.4414 135.534 31.4834 136.193 34.7943C136.851 38.1051 136.51 41.5363 135.213 44.6541C133.917 47.7719 131.722 50.4364 128.908 52.311C126.093 54.1856 122.784 55.1862 119.4 55.1862C117.149 55.1852 114.921 54.742 112.842 53.8819C110.764 53.0218 108.876 51.7616 107.286 50.1734C105.696 48.5852 104.435 46.7001 103.576 44.6259C102.717 42.5517 102.277 40.329 102.28 38.0849ZM109.032 38.0849C109.032 40.1296 109.64 42.1284 110.779 43.8285C111.919 45.5286 113.538 46.8537 115.432 47.6362C117.327 48.4187 119.411 48.6234 121.422 48.2245C123.433 47.8256 125.28 46.841 126.73 45.3951C128.18 43.9493 129.168 42.1072 129.568 40.1018C129.968 38.0964 129.762 36.0177 128.978 34.1286C128.193 32.2395 126.864 30.6249 125.159 29.4889C123.454 28.3529 121.45 27.7466 119.4 27.7466C116.653 27.7562 114.022 28.8485 112.079 30.7853C110.137 32.722 109.042 35.346 109.032 38.0849Z" fill="black"/>
<path d="M174.762 38.0849V51.7498C174.784 52.2052 174.712 52.6601 174.552 53.0871C174.392 53.5141 174.147 53.9042 173.831 54.234C173.516 54.5637 173.136 54.8262 172.716 55.0055C172.296 55.1849 171.843 55.2773 171.386 55.2773C170.929 55.2773 170.477 55.1849 170.056 55.0055C169.636 54.8262 169.257 54.5637 168.941 54.234C168.625 53.9042 168.38 53.5141 168.22 53.0871C168.06 52.6601 167.989 52.2052 168.01 51.7498V38.0849C168.047 36.7046 167.806 35.331 167.302 34.045C166.797 32.759 166.04 31.5868 165.074 30.5976C164.108 29.6083 162.953 28.8221 161.677 28.2852C160.401 27.7483 159.031 27.4717 157.646 27.4717C156.262 27.4717 154.891 27.7483 153.615 28.2852C152.34 28.8221 151.185 29.6083 150.219 30.5976C149.253 31.5868 148.495 32.759 147.991 34.045C147.487 35.331 147.246 36.7046 147.283 38.0849V51.7498C147.304 52.2052 147.232 52.6601 147.072 53.0871C146.912 53.5141 146.667 53.9042 146.351 54.234C146.036 54.5637 145.656 54.8262 145.236 55.0055C144.816 55.1849 144.363 55.2773 143.906 55.2773C143.449 55.2773 142.997 55.1849 142.577 55.0055C142.156 54.8262 141.777 54.5637 141.461 54.234C141.146 53.9042 140.9 53.5141 140.74 53.0871C140.58 52.6601 140.509 52.2052 140.53 51.7498V38.0849C140.623 33.6193 142.467 29.3677 145.667 26.2422C148.866 23.1167 153.167 21.3661 157.646 21.3661C162.125 21.3661 166.426 23.1167 169.626 26.2422C172.826 29.3677 174.67 33.6193 174.762 38.0849Z" fill="black"/>
<path d="M213.013 38.0849V51.7498C213.034 52.2052 212.963 52.6601 212.802 53.0871C212.642 53.5141 212.397 53.9042 212.082 54.234C211.766 54.5637 211.386 54.8262 210.966 55.0055C210.546 55.1849 210.094 55.2773 209.637 55.2773C209.179 55.2773 208.727 55.1849 208.307 55.0055C207.887 54.8262 207.507 54.5637 207.191 54.234C206.876 53.9042 206.631 53.5141 206.471 53.0871C206.31 52.6601 206.239 52.2052 206.26 51.7498V38.0849C206.297 36.7046 206.056 35.331 205.552 34.045C205.048 32.759 204.29 31.5868 203.324 30.5976C202.358 29.6083 201.203 28.8221 199.928 28.2852C198.652 27.7483 197.281 27.4717 195.897 27.4717C194.512 27.4717 193.141 27.7483 191.866 28.2852C190.59 28.8221 189.435 29.6083 188.469 30.5976C187.503 31.5868 186.746 32.759 186.241 34.045C185.737 35.331 185.496 36.7046 185.533 38.0849V51.7498C185.554 52.2052 185.483 52.6601 185.323 53.0871C185.163 53.5141 184.917 53.9042 184.602 54.234C184.286 54.5637 183.907 54.8262 183.486 55.0055C183.066 55.1849 182.614 55.2773 182.157 55.2773C181.7 55.2773 181.247 55.1849 180.827 55.0055C180.407 54.8262 180.027 54.5637 179.712 54.234C179.396 53.9042 179.151 53.5141 178.991 53.0871C178.831 52.6601 178.759 52.2052 178.78 51.7498V38.0849C178.873 33.6193 180.717 29.3677 183.917 26.2422C187.117 23.1167 191.417 21.3661 195.897 21.3661C200.376 21.3661 204.676 23.1167 207.876 26.2422C211.076 29.3677 212.92 33.6193 213.013 38.0849Z" fill="black"/>
<path d="M244.511 24.42V41.5505C244.511 45.2018 243.056 48.7036 240.467 51.2854C237.878 53.8673 234.366 55.3178 230.705 55.3178C227.043 55.3178 223.532 53.8673 220.942 51.2854C218.353 48.7036 216.899 45.2018 216.899 41.5505V24.42C216.939 23.5541 217.313 22.7372 217.941 22.1387C218.57 21.5403 219.406 21.2064 220.275 21.2064C221.144 21.2064 221.98 21.5403 222.609 22.1387C223.238 22.7372 223.611 23.5541 223.651 24.42V41.4189C223.621 42.3621 223.781 43.3018 224.122 44.1822C224.463 45.0625 224.978 45.8655 225.636 46.5435C226.294 47.2215 227.082 47.7606 227.954 48.1287C228.825 48.4969 229.762 48.6866 230.708 48.6866C231.655 48.6866 232.591 48.4969 233.463 48.1287C234.334 47.7606 235.122 47.2215 235.781 46.5435C236.439 45.8655 236.954 45.0625 237.295 44.1822C237.636 43.3018 237.796 42.3621 237.765 41.4189V24.42C237.765 23.528 238.121 22.6725 238.753 22.0418C239.386 21.4111 240.243 21.0567 241.138 21.0567C242.032 21.0567 242.89 21.4111 243.523 22.0418C244.155 22.6725 244.511 23.528 244.511 24.42Z" fill="black"/>
<path d="M268.926 24.4199C268.922 25.3204 268.561 26.1829 267.923 26.8197C267.284 27.4565 266.419 27.8159 265.516 27.8197C264.155 27.8188 262.807 28.0853 261.55 28.604C260.292 29.1228 259.149 29.8836 258.186 30.843C257.223 31.8024 256.459 32.9416 255.938 34.1955C255.417 35.4494 255.149 36.7934 255.149 38.1507V51.8229C255.17 52.2783 255.099 52.7332 254.939 53.1602C254.779 53.5872 254.533 53.9773 254.218 54.3071C253.902 54.6368 253.523 54.8993 253.103 55.0786C252.682 55.258 252.23 55.3504 251.773 55.3504C251.316 55.3504 250.863 55.258 250.443 55.0786C250.023 54.8993 249.643 54.6368 249.328 54.3071C249.012 53.9773 248.767 53.5872 248.607 53.1602C248.447 52.7332 248.375 52.2783 248.396 51.8229V38.1507C248.4 33.6248 250.206 29.2854 253.415 26.0858C256.625 22.8862 260.978 21.0879 265.516 21.086C265.96 21.0792 266.401 21.1603 266.814 21.3247C267.226 21.489 267.602 21.7333 267.919 22.0433C268.236 22.3534 268.488 22.7231 268.661 23.1311C268.834 23.539 268.924 23.9771 268.926 24.4199Z" fill="black"/>
<path d="M273.01 51.823V24.42C273.05 23.5541 273.423 22.7372 274.052 22.1387C274.681 21.5403 275.517 21.2064 276.386 21.2064C277.255 21.2064 278.091 21.5403 278.72 22.1387C279.348 22.7372 279.722 23.5541 279.762 24.42V51.823C279.783 52.2783 279.712 52.7332 279.552 53.1602C279.392 53.5872 279.147 53.9773 278.831 54.3071C278.515 54.6368 278.136 54.8993 277.716 55.0786C277.295 55.258 276.843 55.3504 276.386 55.3504C275.929 55.3504 275.476 55.258 275.056 55.0786C274.636 54.8993 274.256 54.6368 273.941 54.3071C273.625 53.9773 273.38 53.5872 273.22 53.1602C273.06 52.7332 272.988 52.2783 273.01 51.823Z" fill="black"/>
<path d="M114.201 34.8606C113.802 34.8606 113.412 34.9783 113.08 35.1988C112.748 35.4192 112.489 35.7327 112.335 36.0997C112.181 36.4667 112.139 36.871 112.215 37.2616C112.29 37.6522 112.48 38.0118 112.76 38.2951C113.04 38.5785 113.398 38.7729 113.789 38.8541C114.179 38.9352 114.585 38.8994 114.956 38.7511C115.326 38.6029 115.644 38.3488 115.87 38.0208C116.095 37.6928 116.219 37.3056 116.225 36.9078C116.228 36.6406 116.178 36.3755 116.077 36.1277C115.977 35.8799 115.828 35.6544 115.64 35.4641C115.452 35.2738 115.228 35.1225 114.981 35.0189C114.734 34.9154 114.469 34.8615 114.201 34.8606Z" fill="black"/>
<path d="M124.407 41.8795C125.525 41.8795 126.431 40.976 126.431 39.8616C126.431 38.7471 125.525 37.8436 124.407 37.8436C123.29 37.8436 122.384 38.7471 122.384 39.8616C122.384 40.976 123.29 41.8795 124.407 41.8795Z" fill="black"/>
<path d="M275.502 14.1768C275.502 14.1768 269.637 12.8534 276.03 5.75405C282.424 -1.34528 282.167 -0.35825 282.189 0.840814C282.211 2.03988 281.045 11.1498 279.198 12.773C278.707 13.2414 278.127 13.6069 277.493 13.848C276.858 14.0892 276.181 14.2009 275.502 14.1768Z" fill="black"/>
</g>
<defs>
<clipPath id="clip0_1_4">
<rect width="284" height="75" fill="white"/>
</clipPath>
</defs>
</svg>

<?xml version="1.0" encoding="utf-8"?>
<!-- Generator: Adobe Illustrator 27.0.0, SVG Export Plug-In . SVG Version: 6.00 Build 0)  -->
<svg version="1.1" id="Layer_1" xmlns="http://www.w3.org/2000/svg" xmlns:xlink="http://www.w3.org/1999/xlink" x="0px" y="0px"
	 viewBox="0 0 284 80.53" style="enable-background:new 0 0 284 80.53;" xml:space="preserve">
<style type="text/css">
	.st0{clip-path:url(#SVGID_00000029751021108266201840000018271129180979226047_);}
</style>
<g>
	<defs>
		<rect id="SVGID_1_" width="284" height="75"/>
	</defs>
	<clipPath id="SVGID_00000033346735380804640210000005553019240250929288_">
		<use xlink:href="#SVGID_1_"  style="overflow:visible;"/>
	</clipPath>
	<g style="clip-path:url(#SVGID_00000033346735380804640210000005553019240250929288_);">
		<path d="M27.48,24.35V7.42c0.04-0.87,0.41-1.68,1.04-2.28c0.63-0.6,1.46-0.93,2.33-0.93c0.87,0,1.7,0.33,2.33,0.93
			c0.63,0.6,1,1.42,1.04,2.28v30.52c-0.01,3.84-1.32,7.56-3.71,10.57c-2.4,3-5.74,5.11-9.49,5.98s-7.68,0.45-11.16-1.19
			c-3.48-1.64-6.3-4.4-8.01-7.84c-1.71-3.44-2.2-7.35-1.4-11.11c0.8-3.75,2.85-7.13,5.82-9.57c2.97-2.45,6.68-3.82,10.52-3.9
			C20.65,20.81,24.41,22.03,27.48,24.35z M27.48,37.95v-0.07c-0.01-2.75-1.11-5.38-3.06-7.32c-1.95-1.94-4.6-3.03-7.36-3.02
			c-2.76,0-5.4,1.1-7.35,3.04c-1.95,1.95-3.04,4.58-3.04,7.33c0,2.75,1.09,5.39,3.04,7.33c1.95,1.95,4.59,3.04,7.35,3.04
			c2.76,0,5.4-1.08,7.36-3.02C26.37,43.33,27.47,40.69,27.48,37.95z"/>
		<path d="M72.42,38.08c0,0.44-0.09,0.88-0.27,1.29c-0.17,0.41-0.43,0.78-0.74,1.09c-0.32,0.31-0.69,0.55-1.1,0.72
			c-0.41,0.16-0.85,0.25-1.3,0.24H45.48c0.7,2.04,2.03,3.81,3.79,5.07c1.76,1.26,3.87,1.93,6.04,1.94c2.71,0.04,5.38-0.74,7.63-2.24
			c1.57-1.02,3.67-0.07,4.5,1.56c0.84,1.64-0.07,3.47-1.64,4.48c-3.07,2.12-6.77,3.15-10.5,2.92c-4.54,0-8.89-1.8-12.1-5
			c-3.21-3.2-5.01-7.54-5.01-12.07s1.8-8.87,5.01-12.07c3.21-3.2,7.56-5,12.1-5C63.55,21.02,72.42,27,72.42,38.08z M45.48,34.71
			h19.72c-1.47-4.76-5.79-6.94-9.88-6.94c-2.16,0-4.26,0.67-6.02,1.91C47.53,30.93,46.2,32.69,45.48,34.71z"/>
		<path d="M100.92,25.71l-10.23,27.2c-0.24,0.66-0.68,1.22-1.25,1.63c-0.57,0.41-1.25,0.63-1.95,0.65h-0.07
			c-0.7-0.01-1.38-0.23-1.95-0.63c-0.57-0.4-1.01-0.96-1.25-1.62L73.99,25.71c-0.18-0.42-0.27-0.87-0.27-1.33
			c0-0.46,0.09-0.91,0.27-1.33c0.18-0.42,0.44-0.8,0.77-1.11c0.33-0.32,0.72-0.56,1.15-0.72c0.43-0.16,0.88-0.23,1.34-0.21
			c0.46,0.02,0.91,0.13,1.32,0.33c0.41,0.2,0.78,0.48,1.08,0.82c0.3,0.34,0.53,0.74,0.67,1.18l7.16,18.97l7.09-18.97
			c0.32-0.84,0.95-1.52,1.77-1.89c0.82-0.37,1.75-0.4,2.59-0.09c0.84,0.32,1.52,0.95,1.89,1.77
			C101.21,23.94,101.24,24.87,100.92,25.71L100.92,25.71z"/>
		<path d="M102.28,38.08c0.01-3.38,1.01-6.67,2.9-9.48c1.89-2.8,4.56-4.99,7.69-6.27c3.13-1.29,6.57-1.62,9.89-0.96
			c3.32,0.66,6.37,2.29,8.76,4.68c2.39,2.39,4.02,5.43,4.68,8.74c0.66,3.31,0.32,6.74-0.98,9.86c-1.3,3.12-3.49,5.78-6.3,7.66
			c-2.82,1.87-6.12,2.88-9.51,2.88c-2.25,0-4.48-0.44-6.56-1.3c-2.08-0.86-3.97-2.12-5.56-3.71c-1.59-1.59-2.85-3.47-3.71-5.55
			C102.72,42.55,102.28,40.33,102.28,38.08z M109.03,38.08c0,2.04,0.61,4.04,1.75,5.74c1.14,1.7,2.76,3.03,4.65,3.81
			c1.9,0.78,3.98,0.99,5.99,0.59c2.01-0.4,3.86-1.38,5.31-2.83c1.45-1.45,2.44-3.29,2.84-5.29c0.4-2.01,0.19-4.08-0.59-5.97
			c-0.79-1.89-2.11-3.5-3.82-4.64c-1.7-1.14-3.71-1.74-5.76-1.74c-2.75,0.01-5.38,1.1-7.32,3.04
			C110.14,32.72,109.04,35.35,109.03,38.08z"/>
		<path d="M174.76,38.08v13.66c0.02,0.46-0.05,0.91-0.21,1.34c-0.16,0.43-0.4,0.82-0.72,1.15c-0.31,0.33-0.69,0.59-1.11,0.77
			c-0.42,0.18-0.87,0.27-1.33,0.27s-0.91-0.09-1.33-0.27c-0.42-0.18-0.8-0.44-1.12-0.77c-0.32-0.33-0.56-0.72-0.72-1.15
			c-0.16-0.43-0.23-0.88-0.21-1.34V38.08c0.04-1.38-0.2-2.75-0.71-4.04c-0.51-1.29-1.26-2.46-2.23-3.45
			c-0.97-0.99-2.12-1.78-3.4-2.31s-2.65-0.81-4.03-0.81c-1.38,0-2.75,0.28-4.03,0.81c-1.28,0.54-2.43,1.32-3.4,2.31
			c-0.97,0.99-1.72,2.16-2.23,3.45c-0.5,1.29-0.74,2.66-0.71,4.04v13.66c0.02,0.46-0.05,0.91-0.21,1.34
			c-0.16,0.43-0.4,0.82-0.72,1.15c-0.32,0.33-0.69,0.59-1.12,0.77c-0.42,0.18-0.87,0.27-1.33,0.27s-0.91-0.09-1.33-0.27
			c-0.42-0.18-0.8-0.44-1.12-0.77c-0.32-0.33-0.56-0.72-0.72-1.15c-0.16-0.43-0.23-0.88-0.21-1.34V38.08
			c0.09-4.47,1.94-8.72,5.14-11.84c3.2-3.13,7.5-4.88,11.98-4.88c4.48,0,8.78,1.75,11.98,4.88
			C172.83,29.37,174.67,33.62,174.76,38.08z"/>
		<path d="M213.01,38.08v13.66c0.02,0.46-0.05,0.91-0.21,1.34c-0.16,0.43-0.4,0.82-0.72,1.15c-0.32,0.33-0.7,0.59-1.12,0.77
			c-0.42,0.18-0.87,0.27-1.33,0.27c-0.46,0-0.91-0.09-1.33-0.27c-0.42-0.18-0.8-0.44-1.12-0.77c-0.31-0.33-0.56-0.72-0.72-1.15
			c-0.16-0.43-0.23-0.88-0.21-1.34V38.08c0.04-1.38-0.2-2.75-0.71-4.04c-0.5-1.29-1.26-2.46-2.23-3.45
			c-0.97-0.99-2.12-1.78-3.4-2.31c-1.28-0.54-2.65-0.81-4.03-0.81c-1.39,0-2.76,0.28-4.03,0.81c-1.28,0.54-2.43,1.32-3.4,2.31
			c-0.97,0.99-1.72,2.16-2.23,3.45c-0.5,1.29-0.74,2.66-0.71,4.04v13.66c0.02,0.46-0.05,0.91-0.21,1.34
			c-0.16,0.43-0.41,0.82-0.72,1.15c-0.32,0.33-0.7,0.59-1.12,0.77c-0.42,0.18-0.87,0.27-1.33,0.27s-0.91-0.09-1.33-0.27
			c-0.42-0.18-0.8-0.44-1.11-0.77c-0.32-0.33-0.56-0.72-0.72-1.15c-0.16-0.43-0.23-0.88-0.21-1.34V38.08
			c0.09-4.47,1.94-8.72,5.14-11.84c3.2-3.13,7.5-4.88,11.98-4.88c4.48,0,8.78,1.75,11.98,4.88
			C211.08,29.37,212.92,33.62,213.01,38.08z"/>
		<path d="M244.51,24.42v17.13c0,3.65-1.46,7.15-4.04,9.73c-2.59,2.58-6.1,4.03-9.76,4.03c-3.66,0-7.17-1.45-9.76-4.03
			c-2.59-2.58-4.04-6.08-4.04-9.73V24.42c0.04-0.87,0.41-1.68,1.04-2.28c0.63-0.6,1.47-0.93,2.33-0.93c0.87,0,1.71,0.33,2.33,0.93
			c0.63,0.6,1,1.42,1.04,2.28v17c-0.03,0.94,0.13,1.88,0.47,2.76c0.34,0.88,0.86,1.68,1.51,2.36c0.66,0.68,1.45,1.22,2.32,1.59
			c0.87,0.37,1.81,0.56,2.75,0.56c0.95,0,1.88-0.19,2.76-0.56c0.87-0.37,1.66-0.91,2.32-1.59c0.66-0.68,1.17-1.48,1.51-2.36
			c0.34-0.88,0.5-1.82,0.47-2.76v-17c0-0.89,0.36-1.75,0.99-2.38c0.63-0.63,1.49-0.99,2.38-0.99c0.89,0,1.75,0.35,2.38,0.99
			C244.15,22.67,244.51,23.53,244.51,24.42z"/>
		<path d="M268.93,24.42c0,0.9-0.36,1.76-1,2.4c-0.64,0.64-1.5,1-2.41,1c-1.36,0-2.71,0.27-3.97,0.78c-1.26,0.52-2.4,1.28-3.36,2.24
			c-0.96,0.96-1.73,2.1-2.25,3.35c-0.52,1.25-0.79,2.6-0.79,3.96v13.67c0.02,0.46-0.05,0.91-0.21,1.34
			c-0.16,0.43-0.41,0.82-0.72,1.15c-0.32,0.33-0.7,0.59-1.12,0.77c-0.42,0.18-0.87,0.27-1.33,0.27s-0.91-0.09-1.33-0.27
			c-0.42-0.18-0.8-0.44-1.11-0.77c-0.32-0.33-0.56-0.72-0.72-1.15c-0.16-0.43-0.23-0.88-0.21-1.34V38.15
			c0-4.53,1.81-8.87,5.02-12.06c3.21-3.2,7.56-5,12.1-5c0.44-0.01,0.89,0.07,1.3,0.24c0.41,0.16,0.79,0.41,1.11,0.72
			c0.32,0.31,0.57,0.68,0.74,1.09C268.83,23.54,268.92,23.98,268.93,24.42z"/>
		<path d="M273.01,51.82v-27.4c0.04-0.87,0.41-1.68,1.04-2.28c0.63-0.6,1.46-0.93,2.33-0.93c0.87,0,1.71,0.33,2.33,0.93
			c0.63,0.6,1,1.42,1.04,2.28v27.4c0.02,0.46-0.05,0.91-0.21,1.34c-0.16,0.43-0.4,0.82-0.72,1.15c-0.32,0.33-0.7,0.59-1.11,0.77
			c-0.42,0.18-0.87,0.27-1.33,0.27s-0.91-0.09-1.33-0.27c-0.42-0.18-0.8-0.44-1.11-0.77c-0.32-0.33-0.56-0.72-0.72-1.15
			C273.06,52.73,272.99,52.28,273.01,51.82z"/>
		<path d="M114.2,34.86c-0.4,0-0.79,0.12-1.12,0.34c-0.33,0.22-0.59,0.53-0.75,0.9s-0.2,0.77-0.12,1.16
			c0.08,0.39,0.27,0.75,0.55,1.03c0.28,0.28,0.64,0.48,1.03,0.56c0.39,0.08,0.8,0.05,1.17-0.1c0.37-0.15,0.69-0.4,0.91-0.73
			c0.22-0.33,0.35-0.72,0.35-1.11c0-0.27-0.05-0.53-0.15-0.78c-0.1-0.25-0.25-0.47-0.44-0.66c-0.19-0.19-0.41-0.34-0.66-0.45
			C114.73,34.92,114.47,34.86,114.2,34.86z"/>
		<path d="M124.41,41.88c1.12,0,2.02-0.9,2.02-2.02c0-1.11-0.91-2.02-2.02-2.02c-1.12,0-2.02,0.9-2.02,2.02
			C122.38,40.98,123.29,41.88,124.41,41.88z"/>
		<path d="M275.5,14.18c0,0-5.87-1.32,0.53-8.42c6.39-7.1,6.14-6.11,6.16-4.91c0.02,1.2-1.14,10.31-2.99,11.93
			c-0.49,0.47-1.07,0.83-1.7,1.07C276.86,14.09,276.18,14.2,275.5,14.18z"/>
	</g>
</g>
<g>
	<path d="M247.7,75.41l-0.22,0.26c-0.62,0.79-0.86,1.03-1.08,1.03c-0.17,0-0.22-0.07-0.26-0.72l-0.7-7.66l-2.14,3.74
		c-0.43,0.72-0.86,1.51-1.32,2.38c-0.86,1.66-1.27,2.26-1.54,2.26c-0.22,0-0.26-0.19-0.31-1.13l-0.1-2.11
		c-0.1-1.94-0.41-4.73-0.67-5.88c-0.19-0.86-0.36-1.01-1.06-1.01h-0.22h-0.48v-0.31l0.62-0.1l1.1-0.19
		c0.41-0.19,0.82-0.29,1.22-0.29c0.26,0,0.31,0.05,0.46,0.82c0.34,1.73,0.67,4.63,0.77,6.74l4.61-7.3c0.12-0.19,0.19-0.24,0.31-0.24
		c0.14,0,0.19,0.07,0.19,0.34l0.77,8.45c3.14-3.94,3.96-5.21,3.96-6.24c0-0.29-0.14-0.53-0.53-0.89c-0.38-0.36-0.5-0.55-0.5-0.89
		c0-0.48,0.36-0.79,0.94-0.79c0.72,0,1.25,0.53,1.25,1.25C252.79,68.48,251.04,71.41,247.7,75.41z"/>
	<path d="M255.52,76.54c-0.72,0-1.1-0.48-1.1-1.37c0-0.48,0.14-1.18,0.53-2.62l1.15-4.25c0.14-0.46,0.22-0.86,0.22-1.06
		c0-0.48-0.22-0.55-1.51-0.58v-0.38c0.94-0.07,1.42-0.14,3.84-0.6l0.07,0.05l-2.11,7.73c-0.14,0.48-0.38,1.2-0.38,1.58
		c0,0.19,0.19,0.36,0.38,0.36c0.41,0,0.94-0.5,1.97-1.87l0.31,0.26C257.51,75.82,256.65,76.54,255.52,76.54z M258.69,63.39
		c-0.7,0-1.15-0.5-1.15-1.27c0-0.74,0.48-1.27,1.13-1.27c0.65,0,1.2,0.62,1.2,1.32C259.87,62.84,259.31,63.39,258.69,63.39z"/>
	<path d="M267.55,76.54c-0.7,0-1.13-0.46-1.9-1.97c-0.43-0.84-1.06-2.33-1.44-3.38l-1.01,0.77l-1.15,4.32h-1.8l3.05-11.59l0.05-0.22
		l0.22-0.79c0.34-1.13,0.48-1.75,0.53-2.16c-0.05-0.43-0.41-0.6-1.22-0.6h-0.41v-0.38c1.42-0.17,2.33-0.34,3.74-0.65l0.12,0.12
		l-2.88,10.97l1.03-0.79c2.26-1.73,3.43-2.88,3.43-3.36c0-0.26-0.34-0.43-0.94-0.43h-0.38v-0.38h4.39v0.38
		c-1.13,0.07-1.87,0.55-5.4,3.7l0.89,2.11c0.96,2.33,1.44,3.1,1.94,3.1c0.36,0,0.65-0.26,1.08-1.01c0.12-0.19,0.24-0.41,0.36-0.62
		l0.36,0.26C269.11,75.94,268.51,76.54,267.55,76.54z"/>
	<path d="M272.85,76.54c-0.72,0-1.1-0.48-1.1-1.37c0-0.48,0.14-1.18,0.53-2.62l1.15-4.25c0.14-0.46,0.22-0.86,0.22-1.06
		c0-0.48-0.22-0.55-1.51-0.58v-0.38c0.94-0.07,1.42-0.14,3.84-0.6l0.07,0.05l-2.11,7.73c-0.14,0.48-0.38,1.2-0.38,1.58
		c0,0.19,0.19,0.36,0.38,0.36c0.41,0,0.94-0.5,1.97-1.87l0.31,0.26C274.84,75.82,273.98,76.54,272.85,76.54z M276.02,63.39
		c-0.7,0-1.15-0.5-1.15-1.27c0-0.74,0.48-1.27,1.13-1.27c0.65,0,1.2,0.62,1.2,1.32C277.19,62.84,276.64,63.39,276.02,63.39z"/>
</g>
</svg>
